material/.icons/material/star-circle.svg

<svg xmlns="http://www.w3.org/2000/svg" viewBox="0 0 24 24"><path d="M16.23 18L12 15.45 7.77 18l1.12-4.81-3.73-3.23 4.92-.42L12 5l1.92 4.53 4.92.42-3.73 3.23L16.23 18M12 2C6.47 2 2 6.5 2 12a10 10 0 0010 10 10 10 0 0010-10A10 10 0 0012 2z"/></svg>

<?xml version="1.0" encoding="UTF-8"?><!DOCTYPE svg PUBLIC "-//W3C//DTD SVG 1.1//EN" "http://www.w3.org/Graphics/SVG/1.1/DTD/svg11.dtd"><svg xmlns="http://www.w3.org/2000/svg" xmlns:xlink="http://www.w3.org/1999/xlink" version="1.1" id="mdi-star-circle" width="24" height="24" viewBox="0 0 24 24"><path d="M16.23,18L12,15.45L7.77,18L8.89,13.19L5.16,9.96L10.08,9.54L12,5L13.92,9.53L18.84,9.95L15.11,13.18L16.23,18M12,2C6.47,2 2,6.5 2,12A10,10 0 0,0 12,22A10,10 0 0,0 22,12A10,10 0 0,0 12,2Z" /></svg>
